X: 1
T:Sam. Hide's -- Jig
M:6/8
L:1/8
R:jig
B:Ryan's Mammoth Collection
N:89 461
Z:Contributed by Ray Davies,  ray:davies99.freeserve.co.uk
K:A
uE|\
kA3 cAc | ece fga | fed BAB | cAF F2E |
A2A cAc | ece fga | fec BAB | cAA A2:|
|:uA|\
cee dff | cee BAB | cde fga | agf fec |
a2a fed | BAB cAF | Edc BAB | cAA A2:|
